X: 12436
T: Farewell To Ballinahulla
R: slide
M: 12/8
K: Amajor
ABA ABc|ece a2e|ecA ABc|ecA BGE|
ABA ABc|ece a2B|cde fdB|1 BAG A3:|2 BAG Ace||
a3 age|fga e2g|aec Acd|ecA BGE|
[1 a3 age|fga e2d|cde fdB|BAG A3:|
[2 c3 d3|efg a2B|cde fdB|BAG A3||

